X: 101266
T: Jack Regan's
S: "Johnny O'Leary of Sliabh Luachra" (#238)
Z: B.Black
L: 1/8
M: 12/8
Q: 360
R: slide
K: Bm
F2B BAB d2e faf|e2e efe c2e a3|
F2B BAB d2e faf|e2d B/c/BA B3 B3 :|
f3 efe ded cdc|BAB edB AFE EDE|
FBB BAB d2e faf|e2d B/c/BA B3 B3 :|
